src/assets/icons/star.svg

<svg width="16" height="16" viewBox="0 0 16 16" fill="none" xmlns="http://www.w3.org/2000/svg">
<path d="M7.15861 1.30996C7.55219 0.697194 8.44781 0.697195 8.84139 1.30996L10.8577 4.4491C10.9931 4.65994 11.2027 4.81225 11.4451 4.87589L15.0537 5.82344C15.7581 6.0084 16.0348 6.86019 15.5737 7.42386L13.2112 10.3115C13.0526 10.5054 12.9725 10.7519 12.9869 11.0021L13.2008 14.7268C13.2426 15.4539 12.518 15.9803 11.8394 15.7159L8.36304 14.3615C8.12956 14.2705 7.87044 14.2705 7.63696 14.3615L4.1606 15.7159C3.48202 15.9803 2.75745 15.4539 2.79921 14.7268L3.01314 11.0021C3.02751 10.7519 2.94744 10.5054 2.78877 10.3115L0.426331 7.42386C-0.0348182 6.86018 0.241945 6.0084 0.946339 5.82344L4.55491 4.87589C4.79727 4.81225 5.00691 4.65994 5.14233 4.4491L7.15861 1.30996Z" fill="#FFE600"/>
</svg>

<svg xmlns="http://www.w3.org/2000/svg" width="16" height="16" fill="none" xmlns:v="https://vecta.io/nano"><path d="M7.159 1.31a1 1 0 0 1 1.683 0l2.016 3.139a1 1 0 0 0 .587.427l3.609.948a1 1 0 0 1 .52 1.6l-2.363 2.888a1 1 0 0 0-.224.691l.214 3.725a1 1 0 0 1-1.361.989l-3.476-1.354a1 1 0 0 0-.726 0l-3.476 1.354a1 1 0 0 1-1.361-.989l.214-3.725a1 1 0 0 0-.224-.691L.426 7.424a1 1 0 0 1 .52-1.6l3.609-.948a1 1 0 0 0 .587-.427L7.159 1.31z" fill="#ffe600"/></svg>
